X: 168
T: The Cat's Rambles to the Child's Saucepan
T:Mary Willie's
M:6/8
R:slide
K:D
"D"d2e f2e|"G"dcd B3|"A7"g2A cBA|"A"e2A cBA|"D"d2e f2e|"G"dcd B3|"A7"g2A cBA|"D"d3 d2A:|
|: "D"d2e f2a|baf a2f|"A"e2A cBA|e2A cBA|"D"d2e f2a|baf a2f|"A"e2A cBA|"D"d3 d2A:|


